svgs/sharp-solid/ballot-check.svg

<svg xmlns="http://www.w3.org/2000/svg" viewBox="0 0 448 512"><!--! Font Awesome Pro 6.6.0 by @fontawesome - https://fontawesome.com License - https://fontawesome.com/license (Commercial License) Copyright 2024 Fonticons, Inc. --><path d="M448 0L0 0 0 512l448 0L448 0zM64 96l64 0 0 64-64 0 0-64zm64 256l0 64-64 0 0-64 64 0zm80 16l160 0 16 0 0 32-16 0-160 0-16 0 0-32 16 0zM192 112l16 0 160 0 16 0 0 32-16 0-160 0-16 0 0-32zm16 128l160 0 16 0 0 32-16 0-160 0-16 0 0-32 16 0zm-41.4-16l-11.3 11.3-48 48L96 294.6 84.7 283.3l-24-24L49.4 248 72 225.4l11.3 11.3L96 249.4l36.7-36.7L144 201.4 166.6 224z"/></svg>

<svg xmlns="http://www.w3.org/2000/svg" viewBox="0 0 448 512"><!--! Font Awesome Pro 6.4.2 by @fontawesome - https://fontawesome.com License - https://fontawesome.com/license (Commercial License) Copyright 2023 Fonticons, Inc. --><path d="M448 0H0V512H448V0zM64 96h64v64H64V96zm64 256v64H64V352h64zm80 16H368h16v32H368 208 192V368h16zM192 112h16H368h16v32H368 208 192V112zm16 128H368h16v32H368 208 192V240h16zm-41.4-16l-11.3 11.3-48 48L96 294.6 84.7 283.3l-24-24L49.4 248 72 225.4l11.3 11.3L96 249.4l36.7-36.7L144 201.4 166.6 224z"/></svg>
